icons/1_Primary/DMarket.svg

<svg width="1024" height="1024" viewBox="0 0 1024 1024" fill="none" xmlns="http://www.w3.org/2000/svg">
<g clip-path="url(#clip0_2_2034)">
<path d="M512 1024C794.77 1024 1024 794.77 1024 512C1024 229.23 794.77 0 512 0C229.23 0 0 229.23 0 512C0 794.77 229.23 1024 512 1024Z" fill="#98DC9A"/>
<path d="M367.85 257C360.259 257.114 352.823 259.164 346.245 262.954C339.667 266.744 334.165 272.15 330.26 278.66L282.65 358C275.13 367.62 275.13 382 282.65 394.08L335.27 490.3C342.77 503.3 346.33 521.3 337.77 533.61L282.65 629.83C275.15 639.45 275.15 653.83 282.65 665.89L330.28 745.3C337.2 758.6 352.87 766.94 367.87 766.94H618.48C633.48 766.94 648.53 759.73 656.07 745.28L781.38 533.58C788.886 519.153 788.886 504.723 781.38 490.29L656 278.64C648.51 264.19 633.47 257 618.44 257H367.85ZM443 379.69H545.78C560.78 379.69 575.83 386.9 583.37 401.33L636.01 490.33C643.516 504.777 643.516 519.213 636.01 533.64L583.37 620.23C575.85 634.67 560.8 641.9 545.78 641.9H443C443 641.9 428.65 642.37 428.65 639.35L492.54 533.64C500.226 519.193 500.226 504.757 492.54 490.33L428.61 382.22C428.61 379.22 443.02 379.67 443.02 379.67L443 379.69Z" fill="white"/>
</g>
<defs>
<clipPath id="clip0_2_2034">
<rect width="1024" height="1024" fill="white"/>
</clipPath>
</defs>
</svg>

<svg xmlns="http://www.w3.org/2000/svg" viewBox="0 0 1024 1024">
   <circle cx="512" cy="512" r="512" style="fill:#86c78d"/>
   <path d="M367.85 257a44.62 44.62 0 0 0-37.59 21.66L282.65 358c-7.52 9.62-7.52 24 0 36.08l52.62 96.22c7.5 13 11.06 31 2.5 43.31l-55.12 96.22c-7.5 9.62-7.5 24 0 36.06l47.63 79.41c6.92 13.3 22.59 21.64 37.59 21.64h250.61c15 0 30.05-7.21 37.59-21.66l125.31-211.7q11.26-21.64 0-43.29L656 278.64c-7.49-14.45-22.53-21.64-37.56-21.64ZM443 379.69h102.78c15 0 30.05 7.21 37.59 21.64l52.64 89q11.26 21.67 0 43.31l-52.64 86.59c-7.52 14.44-22.57 21.67-37.59 21.67H443s-14.35.47-14.35-2.55l63.89-105.71q11.53-21.67 0-43.31l-63.93-108.11c0-3 14.41-2.55 14.41-2.55Z" style="fill:#fff"/>
</svg>
